public/work/imported/logos/mojang-studios.svg

<svg xmlns="http://www.w3.org/2000/svg" width="1024" height="292" viewBox="0 0 1024 292"><path fill="#0a0a0a" fill-rule="evenodd" d="M35.674 35.659c-.838.838-.904 136.579-.067 138.759.518 1.35 2.913 1.582 16.3 1.582 10.872 0 16.062-.369 16.893-1.2.901-.901 1.2-13.499 1.2-50.545V74.909l2.455-2.454C74.674 70.235 75.72 70 83.366 70c8.215 0 8.53.088 11.045 3.077L97 76.153v30.342c0 16.688.273 31.053.607 31.923.912 2.376 32.874 2.376 33.786 0 .334-.87.607-15.074.607-31.566 0-37.319-.2-36.765 13.327-36.82 7.337-.03 8.01.151 10.75 2.891L159 75.846v48.495c0 26.673.273 49.207.607 50.077.518 1.351 2.927 1.582 16.465 1.582 14.655 0 15.936-.147 16.893-1.934 1.423-2.66 1.423-99.472 0-102.132-.914-1.707-2.168-1.934-10.684-1.934-11.648 0-16.974-2.068-21-8.152-2.267-3.425-2.662-5.301-3.184-15.129L157.5 35.5l-60.576-.258c-33.316-.141-60.879.046-61.25.417m231.736.761c-12.443 2.838-27.077 10.381-35.764 18.434-8.877 8.229-17.26 23.075-20.231 35.827-2.548 10.935-1.589 29.483 2.08 40.22 5.863 17.161 19.161 32.31 35.575 40.527 12.503 6.259 20.91 7.913 37.241 7.327 15.56-.558 22.244-2.387 34.043-9.314 35.51-20.849 46.346-67.81 23.52-101.937-9.13-13.651-22.961-24.155-38.374-29.145-9.924-3.212-28.385-4.152-38.09-1.939m139.257-.753c-.367.366-.667 7.534-.667 15.928 0 12.541.28 15.542 1.571 16.834 1.365 1.364 5.895 1.571 34.465 1.571 32.051 0 32.922.052 33.982 2.034.737 1.376.99 12.027.785 32.973-.382 38.968 1.809 35.369-21.798 35.808-19.628.366-26.099-.805-34.051-6.16-8.508-5.73-13.602-14.09-16.393-26.905l-.599-2.75H387.5c-19.128 0-18.563-.376-16.505 10.971 2.769 15.271 10.888 30.114 22.167 40.529 8.241 7.609 15.441 11.883 26.54 15.755l8.798 3.069 23.5.088 23.5.088.701-11.204c1.176-18.812 4.969-22.587 23.686-23.575 7.081-.373 10.657-.973 11.235-1.884 1.412-2.228 1.101-101.214-.322-102.637-.902-.902-13.896-1.2-52.333-1.2-28.124 0-51.434.3-51.8.667m179.672.375c-19.673 3.892-39.357 19.23-48.745 37.984-7.335 14.654-7.691 17.67-7.372 62.474l.278 39h33l.572-38c.639-42.472.848-43.908 7.709-53 2.076-2.75 5.943-6.458 8.595-8.241C588.298 70.935 593.182 70 613.071 70c23.559 0 22.429-.876 22.429 17.384 0 19.191 1.779 17.977-27.276 18.616l-22.724.5-.276 15.924c-.152 8.758.095 16.295.548 16.748.454.454 9.803 1.075 20.777 1.38s21.412.776 23.199 1.046c5.23.792 6.252 4.019 6.252 19.745 0 11.336.248 13.538 1.582 14.05 3.086 1.184 30.953.672 32.218-.593.902-.902 1.2-13.814 1.2-51.965 0-58.876 1.454-52.818-12.684-52.863C641.719 69.919 636 64.231 636 47.777c0-13.715 1.725-12.796-23.785-12.667-11.943.06-23.588.48-25.876.932m104.121.208c-.263.688-.361 32.3-.219 70.25l.259 69 15.994.277c14.162.245 16.138.079 17.25-1.441.968-1.325 1.256-13.19 1.256-51.827 0-37.64.299-50.408 1.2-51.309 1.628-1.628 61.586-1.71 65.143-.09 1.34.611 2.936 2.207 3.547 3.547.764 1.679 1.11 17.456 1.11 50.69 0 36.197.3 48.553 1.2 49.453.827.827 5.889 1.2 16.3 1.2s15.473-.373 16.3-1.2c1.73-1.73 1.73-101.87 0-103.6-.744-.744-4.641-1.229-10.25-1.276-18.217-.153-23.55-5.347-23.55-22.935 0-6.125-.434-10.023-1.2-10.789-1.778-1.778-103.661-1.729-104.34.05m213.04.226c-15.029 3.329-25.379 9.28-36 20.702-16.335 17.565-23.216 42.095-17.885 63.758 3.943 16.022 15.087 32.523 28.673 42.455 8.087 5.911 24.351 11.584 34.212 11.932l5 .177.5-14.725c.614-18.092 1.002-18.73 12.109-19.917 9.363-1 20.882.409 22.606 2.766.898 1.229 1.285 5.861 1.285 15.376 0 9.351.394 14.156 1.256 15.336 1.112 1.52 3.088 1.686 17.25 1.441l15.994-.277v-69h-69l-.5 12.672c-.458 11.602-.701 12.885-2.876 15.198-7.369 7.836-22.194 1.358-29.129-12.729-5.563-11.299-4.979-25.369 1.475-35.593 3.517-5.572 11.061-11.729 17.17-14.015 5.108-1.911 7.68-2.033 42.706-2.033 28.335 0 37.684-.301 38.99-1.256 1.52-1.112 1.686-3.088 1.441-17.25L988.5 35.5l-39.5-.176c-29.723-.133-40.985.152-45.5 1.152m-632 37.267c-18.089 6.498-28.152 25.183-23.037 42.777 4.573 15.73 18.437 25.911 35.031 25.723 8.469-.095 14.195-2.03 20.727-7.003 9.566-7.283 14.333-17.709 13.565-29.674-.843-13.134-7.471-23.454-19.018-29.609-5.314-2.833-7.486-3.392-14.268-3.676-5.858-.244-9.339.147-13 1.462m27.4 138.248c-4.723 2.497-7.233 6.49-7.233 11.509 0 6.187 2.551 9.07 12.034 13.596 7.75 3.699 8.396 4.234 8.11 6.711-.266 2.301-.837 2.737-3.922 2.995-2.697.226-4.375-.34-6.624-2.233l-3.013-2.534-4.099 2.969c-4.795 3.473-4.647 4.689 1.049 8.636 8.74 6.057 23.675 3.587 27.974-4.624 4.522-8.64 1.052-15.203-10.924-20.661-7.649-3.485-9.335-5.346-7.188-7.932 1.542-1.858 5.146-1.189 8.714 1.617 2.591 2.038 3.432 1.837 8.222-1.97 3.096-2.459 2.147-4.518-3.596-7.804-5.067-2.899-14.294-3.029-19.504-.275m338.533.388c-10.029 4.67-15.133 16.26-11.964 27.162 3.029 10.421 11.952 17.394 22.313 17.437 12.696.053 22.427-8.504 23.91-21.023 2.205-18.617-16.809-31.701-34.259-23.576m72.335-.32c-4.355 2.299-6.768 6.378-6.768 11.441 0 6.591 2.333 9.321 11.642 13.622 7.877 3.639 8.464 4.117 8.172 6.649-.414 3.594-4.56 4.166-9.418 1.3-4.474-2.64-5.003-2.608-9.132.541l-3.424 2.612 2.83 3.011c3.79 4.033 8.173 5.765 14.586 5.765 10.449 0 17.739-6.234 17.742-15.173.003-5.252-3.964-9.47-12.616-13.412-8.08-3.683-8.927-4.529-7.393-7.394 1.364-2.549 3.684-2.555 7.511-.021 1.65 1.093 3.581 1.99 4.29 1.993 1.798.01 7.21-4.124 7.21-5.507 0-1.516-3.827-4.818-7.297-6.295-4.353-1.853-13.632-1.404-17.935.868m-353.57 4.191.302 5.25 5.47.31c3.008.17 6.046.788 6.75 1.372.942.782 1.28 5.258 1.28 16.94V256h6c3.3 0 6.073-.113 6.162-.25s.427-7.675.75-16.75l.588-16.5 6.25-.298 6.25-.297V211h-40.105zm72.512-4.627c-1.388 1.388-.774 27.797.766 32.986 2.585 8.703 8.439 12.413 19.517 12.369 7.967-.032 13.183-2.716 16.597-8.542 2.597-4.431 2.812-5.666 3.222-18.522.242-7.576.15-14.931-.205-16.344-.603-2.402-1.037-2.57-6.626-2.57H456v14.066c0 17.622-.925 19.888-8.128 19.919-5.783.024-6.309-1.383-6.872-18.384l-.5-15.101-5.54-.294c-3.047-.161-5.859.026-6.25.417m73.881 1.001c-.771 2.008-.642 38.467.147 41.482.449 1.718 1.547 1.894 11.791 1.894 10.81 0 11.569-.141 17.63-3.279 8.687-4.497 11.341-9.15 11.341-19.885 0-6.924-.294-8.082-3.044-12-1.675-2.385-5.05-5.459-7.5-6.833-3.964-2.22-5.848-2.535-17.062-2.846-11.446-.318-12.67-.183-13.303 1.467m75.857-.348c-.27.702-.368 10.714-.219 22.25l.271 20.974 6.25.298 6.25.297V211h-6.031c-3.968 0-6.199.437-6.521 1.276m-62.781 10.391c-.367.366-.667 5.33-.667 11.031 0 8.314.298 10.479 1.508 10.943 2.498.959 8.32-.589 11.05-2.937 5.467-4.703 3.722-16.365-2.788-18.634-3.452-1.204-8.097-1.409-9.103-.403m128.756.937c-2.158.751-4.058 1.373-4.224 1.381-1.274.064-3.164 7.686-2.622 10.573 1.484 7.912 12.199 11.393 17.807 5.785 8.737-8.737.673-21.788-10.961-17.739"/></svg>

<svg xmlns="http://www.w3.org/2000/svg" width="1024" height="292" viewBox="0 0 1024 292" version="1.1">
	<path d="M 35.674 35.659 C 34.836 36.497, 34.770 172.238, 35.607 174.418 C 36.125 175.768, 38.520 176, 51.907 176 C 62.779 176, 67.969 175.631, 68.800 174.800 C 69.701 173.899, 70 161.301, 70 124.255 L 70 74.909 72.455 72.455 C 74.674 70.235, 75.720 70, 83.366 70 C 91.581 70, 91.896 70.088, 94.411 73.077 L 97 76.153 97 106.495 C 97 123.183, 97.273 137.548, 97.607 138.418 C 98.519 140.794, 130.481 140.794, 131.393 138.418 C 131.727 137.548, 132 123.344, 132 106.852 C 132 69.533, 131.800 70.087, 145.327 70.032 C 152.664 70.002, 153.337 70.183, 156.077 72.923 L 159 75.846 159 124.341 C 159 151.014, 159.273 173.548, 159.607 174.418 C 160.125 175.769, 162.534 176, 176.072 176 C 190.727 176, 192.008 175.853, 192.965 174.066 C 194.388 171.406, 194.388 74.594, 192.965 71.934 C 192.051 70.227, 190.797 70, 182.281 70 C 170.633 70, 165.307 67.932, 161.281 61.848 C 159.014 58.423, 158.619 56.547, 158.097 46.719 L 157.500 35.500 96.924 35.242 C 63.608 35.101, 36.045 35.288, 35.674 35.659 M 267.410 36.420 C 254.967 39.258, 240.333 46.801, 231.646 54.854 C 222.769 63.083, 214.386 77.929, 211.415 90.681 C 208.867 101.616, 209.826 120.164, 213.495 130.901 C 219.358 148.062, 232.656 163.211, 249.070 171.428 C 261.573 177.687, 269.980 179.341, 286.311 178.755 C 301.871 178.197, 308.555 176.368, 320.354 169.441 C 355.864 148.592, 366.700 101.631, 343.874 67.504 C 334.744 53.853, 320.913 43.349, 305.500 38.359 C 295.576 35.147, 277.115 34.207, 267.410 36.420 M 406.667 35.667 C 406.300 36.033, 406 43.201, 406 51.595 C 406 64.136, 406.280 67.137, 407.571 68.429 C 408.936 69.793, 413.466 70, 442.036 70 C 474.087 70, 474.958 70.052, 476.018 72.034 C 476.755 73.410, 477.008 84.061, 476.803 105.007 C 476.421 143.975, 478.612 140.376, 455.005 140.815 C 435.377 141.181, 428.906 140.010, 420.954 134.655 C 412.446 128.925, 407.352 120.565, 404.561 107.750 L 403.962 105 387.500 105 C 368.372 105, 368.937 104.624, 370.995 115.971 C 373.764 131.242, 381.883 146.085, 393.162 156.500 C 401.403 164.109, 408.603 168.383, 419.702 172.255 L 428.500 175.324 452 175.412 L 475.500 175.500 476.201 164.296 C 477.377 145.484, 481.170 141.709, 499.887 140.721 C 506.968 140.348, 510.544 139.748, 511.122 138.837 C 512.534 136.609, 512.223 37.623, 510.800 36.200 C 509.898 35.298, 496.904 35, 458.467 35 C 430.343 35, 407.033 35.300, 406.667 35.667 M 586.339 36.042 C 566.666 39.934, 546.982 55.272, 537.594 74.026 C 530.259 88.680, 529.903 91.696, 530.222 136.500 L 530.500 175.500 547 175.500 L 563.500 175.500 564.072 137.500 C 564.711 95.028, 564.920 93.592, 571.781 84.500 C 573.857 81.750, 577.724 78.042, 580.376 76.259 C 588.298 70.935, 593.182 70, 613.071 70 C 636.630 70, 635.500 69.124, 635.500 87.384 C 635.500 106.575, 637.279 105.361, 608.224 106 L 585.500 106.500 585.224 122.424 C 585.072 131.182, 585.319 138.719, 585.772 139.172 C 586.226 139.626, 595.575 140.247, 606.549 140.552 C 617.522 140.857, 627.961 141.328, 629.748 141.598 C 634.978 142.390, 636 145.617, 636 161.343 C 636 172.679, 636.248 174.881, 637.582 175.393 C 640.668 176.577, 668.535 176.065, 669.800 174.800 C 670.702 173.898, 671 160.986, 671 122.835 C 671 63.959, 672.454 70.017, 658.316 69.972 C 641.719 69.919, 636 64.231, 636 47.777 C 636 34.062, 637.725 34.981, 612.215 35.110 C 600.272 35.170, 588.627 35.590, 586.339 36.042 M 690.460 36.250 C 690.197 36.938, 690.099 68.550, 690.241 106.500 L 690.500 175.500 706.494 175.777 C 720.656 176.022, 722.632 175.856, 723.744 174.336 C 724.712 173.011, 725 161.146, 725 122.509 C 725 84.869, 725.299 72.101, 726.200 71.200 C 727.828 69.572, 787.786 69.490, 791.343 71.110 C 792.683 71.721, 794.279 73.317, 794.890 74.657 C 795.654 76.336, 796 92.113, 796 125.347 C 796 161.544, 796.300 173.900, 797.200 174.800 C 798.027 175.627, 803.089 176, 813.500 176 C 823.911 176, 828.973 175.627, 829.800 174.800 C 831.530 173.070, 831.530 72.930, 829.800 71.200 C 829.056 70.456, 825.159 69.971, 819.550 69.924 C 801.333 69.771, 796 64.577, 796 46.989 C 796 40.864, 795.566 36.966, 794.800 36.200 C 793.022 34.422, 691.139 34.471, 690.460 36.250 M 903.500 36.476 C 888.471 39.805, 878.121 45.756, 867.500 57.178 C 851.165 74.743, 844.284 99.273, 849.615 120.936 C 853.558 136.958, 864.702 153.459, 878.288 163.391 C 886.375 169.302, 902.639 174.975, 912.500 175.323 L 917.500 175.500 918 160.775 C 918.614 142.683, 919.002 142.045, 930.109 140.858 C 939.472 139.858, 950.991 141.267, 952.715 143.624 C 953.613 144.853, 954 149.485, 954 159 C 954 168.351, 954.394 173.156, 955.256 174.336 C 956.368 175.856, 958.344 176.022, 972.506 175.777 L 988.500 175.500 988.500 141 L 988.500 106.500 954 106.500 L 919.500 106.500 919 119.172 C 918.542 130.774, 918.299 132.057, 916.124 134.370 C 908.755 142.206, 893.930 135.728, 886.995 121.641 C 881.432 110.342, 882.016 96.272, 888.470 86.048 C 891.987 80.476, 899.531 74.319, 905.640 72.033 C 910.748 70.122, 913.320 70, 948.346 70 C 976.681 70, 986.030 69.699, 987.336 68.744 C 988.856 67.632, 989.022 65.656, 988.777 51.494 L 988.500 35.500 949 35.324 C 919.277 35.191, 908.015 35.476, 903.500 36.476 M 271.500 73.743 C 253.411 80.241, 243.348 98.926, 248.463 116.520 C 253.036 132.250, 266.900 142.431, 283.494 142.243 C 291.963 142.148, 297.689 140.213, 304.221 135.240 C 313.787 127.957, 318.554 117.531, 317.786 105.566 C 316.943 92.432, 310.315 82.112, 298.768 75.957 C 293.454 73.124, 291.282 72.565, 284.500 72.281 C 278.642 72.037, 275.161 72.428, 271.500 73.743 M 298.900 211.991 C 294.177 214.488, 291.667 218.481, 291.667 223.500 C 291.667 229.687, 294.218 232.570, 303.701 237.096 C 311.451 240.795, 312.097 241.330, 311.811 243.807 C 311.545 246.108, 310.974 246.544, 307.889 246.802 C 305.192 247.028, 303.514 246.462, 301.265 244.569 L 298.252 242.035 294.153 245.004 C 289.358 248.477, 289.506 249.693, 295.202 253.640 C 303.942 259.697, 318.877 257.227, 323.176 249.016 C 327.698 240.376, 324.228 233.813, 312.252 228.355 C 304.603 224.870, 302.917 223.009, 305.064 220.423 C 306.606 218.565, 310.210 219.234, 313.778 222.040 C 316.369 224.078, 317.210 223.877, 322 220.070 C 325.096 217.611, 324.147 215.552, 318.404 212.266 C 313.337 209.367, 304.110 209.237, 298.900 211.991 M 637.433 212.379 C 627.404 217.049, 622.300 228.639, 625.469 239.541 C 628.498 249.962, 637.421 256.935, 647.782 256.978 C 660.478 257.031, 670.209 248.474, 671.692 235.955 C 673.897 217.338, 654.883 204.254, 637.433 212.379 M 709.768 212.059 C 705.413 214.358, 703 218.437, 703 223.500 C 703 230.091, 705.333 232.821, 714.642 237.122 C 722.519 240.761, 723.106 241.239, 722.814 243.771 C 722.400 247.365, 718.254 247.937, 713.396 245.071 C 708.922 242.431, 708.393 242.463, 704.264 245.612 L 700.840 248.224 703.670 251.235 C 707.460 255.268, 711.843 257, 718.256 257 C 728.705 257, 735.995 250.766, 735.998 241.827 C 736.001 236.575, 732.034 232.357, 723.382 228.415 C 715.302 224.732, 714.455 223.886, 715.989 221.021 C 717.353 218.472, 719.673 218.466, 723.500 221 C 725.150 222.093, 727.081 222.990, 727.790 222.993 C 729.588 223.003, 735 218.869, 735 217.486 C 735 215.970, 731.173 212.668, 727.703 211.191 C 723.350 209.338, 714.071 209.787, 709.768 212.059 M 356.198 216.250 L 356.500 221.500 361.970 221.810 C 364.978 221.980, 368.016 222.598, 368.720 223.182 C 369.662 223.964, 370 228.440, 370 240.122 L 370 256 376 256 C 379.300 256, 382.073 255.887, 382.162 255.750 C 382.251 255.613, 382.589 248.075, 382.912 239 L 383.500 222.500 389.750 222.202 L 396 221.905 396 216.452 L 396 211 375.948 211 L 355.895 211 356.198 216.250 M 428.710 211.623 C 427.322 213.011, 427.936 239.420, 429.476 244.609 C 432.061 253.312, 437.915 257.022, 448.993 256.978 C 456.960 256.946, 462.176 254.262, 465.590 248.436 C 468.187 244.005, 468.402 242.770, 468.812 229.914 C 469.054 222.338, 468.962 214.983, 468.607 213.570 C 468.004 211.168, 467.570 211, 461.981 211 L 456 211 456 225.066 C 456 242.688, 455.075 244.954, 447.872 244.985 C 442.089 245.009, 441.563 243.602, 441 226.601 L 440.500 211.500 434.960 211.206 C 431.913 211.045, 429.101 211.232, 428.710 211.623 M 502.591 212.624 C 501.820 214.632, 501.949 251.091, 502.738 254.106 C 503.187 255.824, 504.285 256, 514.529 256 C 525.339 256, 526.098 255.859, 532.159 252.721 C 540.846 248.224, 543.500 243.571, 543.500 232.836 C 543.500 225.912, 543.206 224.754, 540.456 220.836 C 538.781 218.451, 535.406 215.377, 532.956 214.003 C 528.992 211.783, 527.108 211.468, 515.894 211.157 C 504.448 210.839, 503.224 210.974, 502.591 212.624 M 578.448 212.276 C 578.178 212.978, 578.080 222.990, 578.229 234.526 L 578.500 255.500 584.750 255.798 L 591 256.095 591 233.548 L 591 211 584.969 211 C 581.001 211, 578.770 211.437, 578.448 212.276 M 515.667 222.667 C 515.300 223.033, 515 227.997, 515 233.698 C 515 242.012, 515.298 244.177, 516.508 244.641 C 519.006 245.600, 524.828 244.052, 527.558 241.704 C 533.025 237.001, 531.280 225.339, 524.770 223.070 C 521.318 221.866, 516.673 221.661, 515.667 222.667 M 644.423 223.604 C 642.265 224.355, 640.365 224.977, 640.199 224.985 C 638.925 225.049, 637.035 232.671, 637.577 235.558 C 639.061 243.470, 649.776 246.951, 655.384 241.343 C 664.121 232.606, 656.057 219.555, 644.423 223.604" stroke="none" fill="#0a0a0a" fill-rule="evenodd"/>
</svg>
